src/lib/packages/icons/src/assets/filled/bitcoin-circle.svg

<svg width="24" height="24" viewBox="0 0 24 24" fill="none" xmlns="http://www.w3.org/2000/svg">
<path d="M12.911 11.25H10.796V9.08997H12.911C13.494 9.08997 13.969 9.57404 13.969 10.17C13.969 10.766 13.494 11.25 12.911 11.25ZM13.427 12.75H12.91H10.795V14.91H13.426C14.009 14.91 14.484 14.426 14.484 13.83C14.484 13.234 14.011 12.75 13.427 12.75ZM22 12C22 17.523 17.523 22 12 22C6.477 22 2 17.523 2 12C2 6.477 6.477 2 12 2C17.523 2 22 6.477 22 12ZM15.985 13.83C15.985 12.971 15.563 12.215 14.921 11.745C15.259 11.308 15.468 10.766 15.468 10.17C15.468 8.92004 14.582 7.87599 13.409 7.64099V7C13.409 6.586 13.073 6.25 12.659 6.25C12.245 6.25 11.909 6.586 11.909 7V7.58997H11.318V7C11.318 6.586 10.982 6.25 10.568 6.25C10.154 6.25 9.81799 6.586 9.81799 7V7.58997H8.76401C8.35001 7.58997 8.01401 7.92597 8.01401 8.33997C8.01401 8.75397 8.35001 9.08997 8.76401 9.08997H9.29501V14.91H8.76401C8.35001 14.91 8.01401 15.246 8.01401 15.66C8.01401 16.074 8.35001 16.41 8.76401 16.41H9.81799V17C9.81799 17.414 10.154 17.75 10.568 17.75C10.982 17.75 11.318 17.414 11.318 17V16.41H11.909V17C11.909 17.414 12.245 17.75 12.659 17.75C13.073 17.75 13.409 17.414 13.409 17V16.41H13.426C14.838 16.41 15.985 15.253 15.985 13.83Z" fill="currentColor"/>
</svg>

<svg xmlns="http://www.w3.org/2000/svg" width="24" height="24" fill="none"><path fill="currentColor" d="M12.911 11.25h-2.115V9.09h2.115a1.07 1.07 0 0 1 1.058 1.08 1.07 1.07 0 0 1-1.058 1.08Zm.516 1.5h-2.632v2.16h2.631a1.07 1.07 0 0 0 1.058-1.08c0-.596-.473-1.08-1.057-1.08ZM22 12c0 5.523-4.477 10-10 10S2 17.523 2 12 6.477 2 12 2s10 4.477 10 10Zm-6.015 1.83a2.58 2.58 0 0 0-1.064-2.085c.338-.437.547-.979.547-1.575 0-1.25-.886-2.294-2.059-2.529V7a.75.75 0 0 0-1.5 0v.59h-.591V7a.75.75 0 0 0-1.5 0v.59H8.764a.75.75 0 0 0 0 1.5h.531v5.82h-.531a.75.75 0 0 0 0 1.5h1.054V17a.75.75 0 0 0 1.5 0v-.59h.591V17a.75.75 0 0 0 1.5 0v-.59h.017c1.412 0 2.559-1.157 2.559-2.58Z"/></svg>
